src/assets/card2.svg

<svg width="64" height="66" viewBox="0 0 64 66" fill="none" xmlns="http://www.w3.org/2000/svg">
<path d="M59.9834 45.5032C55.2099 56.2619 44.4763 63.7612 32 63.7612C15.0863 63.7612 1.375 49.9786 1.375 32.9768C1.375 15.9751 15.0863 2.1925 32 2.1925C44.4763 2.1925 55.2099 9.69182 59.9834 20.4505C58.2855 24.2772 57.3418 28.5163 57.3418 32.9768C57.3418 37.4374 58.2855 41.6765 59.9834 45.5032Z" fill="#A7DDE2"/>
<path d="M2.5 48.5575H58.4185C56.7637 51.385 54.6719 53.9298 52.2215 56.0965H5C2.23862 56.0965 0 53.8462 0 51.0705C0 49.6826 1.11925 48.5575 2.5 48.5575ZM50.791 8.66688C50.6542 8.55991 50.5165 8.45407 50.378 8.34937H11.5C8.73862 8.34937 6.5 10.5996 6.5 13.3754V41.0185C6.5 43.7942 8.73862 46.0445 11.5 46.0445H59C59.2597 46.0445 59.515 46.0245 59.7641 45.9862C60.5076 44.3858 61.1117 42.7237 61.5696 41.0185C61.5731 41.0053 61.7262 31.3902 61.7262 31.3902C61.7261 22.5342 57.7441 14.1054 50.791 8.66688Z" fill="#056099"/>
<path d="M11 56.0965H5C2.23863 56.0965 0 53.8462 0 51.0705C0 49.6826 1.11925 48.5575 2.5 48.5575H8.5C7.11925 48.5575 6 49.6826 6 51.0705C6 53.8462 8.23862 56.0965 11 56.0965ZM16.5 8.34937H11.5C8.73862 8.34937 6.5 10.5996 6.5 13.3754V41.0185C6.5 43.7942 8.73862 46.0445 11.5 46.0445H16.5C13.7386 46.0445 11.5 43.7942 11.5 41.0185V13.3754C11.5 10.5996 13.7386 8.34937 16.5 8.34937ZM26.25 48.5575C26.25 50.6394 27.9289 52.327 30 52.327H41.25C43.3211 52.327 45 50.6394 45 48.5575H26.25Z" fill="#013F69"/>
<path d="M39.8376 13.3754C44.2162 18.6995 46.8471 25.5294 46.8471 32.9768C46.8471 35.759 46.4799 38.4549 45.7916 41.0184H14C12.6192 41.0184 11.5 39.8934 11.5 38.5054V15.8884C11.5 14.5004 12.6192 13.3754 14 13.3754H39.8376Z" fill="#75A5D3"/>
<path d="M22.6875 41.0184V24.6839C22.6875 23.9899 23.2471 23.4274 23.9375 23.4274H61.1229C62.0979 26.4337 62.625 29.6433 62.625 32.9768C62.625 35.7589 62.2578 38.4549 61.5695 41.0184H22.6875Z" fill="#FFF5F5"/>
<path d="M17.5 38.5054H15C14.3096 38.5054 13.75 37.9429 13.75 37.2489V24.6839C13.75 23.9899 14.3096 23.4274 15 23.4274H17.5C18.1904 23.4274 18.75 23.9899 18.75 24.6839V37.2489C18.75 37.9429 18.1904 38.5054 17.5 38.5054Z" fill="#5592CA"/>
<path d="M16.2499 33.6937C16.4026 33.6937 16.5538 33.7239 16.6949 33.7827C16.8359 33.8414 16.9641 33.9275 17.0721 34.036C17.1801 34.1446 17.2657 34.2734 17.3242 34.4152C17.3826 34.557 17.4127 34.709 17.4127 34.8625C17.4127 35.016 17.3826 35.168 17.3242 35.3098C17.2657 35.4516 17.1801 35.5804 17.0721 35.689C16.9641 35.7975 16.8359 35.8836 16.6949 35.9423C16.5538 36.0011 16.4026 36.0313 16.2499 36.0313C16.0972 36.0313 15.946 36.0011 15.8049 35.9423C15.6639 35.8836 15.5357 35.7975 15.4277 35.689C15.3197 35.5804 15.2341 35.4516 15.1757 35.3098C15.1172 35.168 15.0872 35.016 15.0872 34.8625C15.0872 34.709 15.1172 34.557 15.1757 34.4152C15.2341 34.2734 15.3197 34.1446 15.4277 34.036C15.5357 33.9275 15.6639 33.8414 15.8049 33.7827C15.946 33.7239 16.0972 33.6937 16.2499 33.6937ZM15.0872 30.9665C15.0872 31.2764 15.2097 31.5737 15.4277 31.7929C15.6458 32.0121 15.9415 32.1353 16.2499 32.1353C16.5583 32.1353 16.854 32.0121 17.0721 31.7929C17.2902 31.5737 17.4127 31.2764 17.4127 30.9665C17.4127 30.6565 17.2902 30.3592 17.0721 30.14C16.854 29.9208 16.5583 29.7977 16.2499 29.7977C16.0972 29.7976 15.946 29.8279 15.8049 29.8866C15.6638 29.9453 15.5357 30.0314 15.4277 30.14C15.3197 30.2485 15.2341 30.3773 15.1756 30.5192C15.1172 30.661 15.0871 30.813 15.0872 30.9665ZM15.0872 27.0703C15.0872 27.3803 15.2097 27.6776 15.4277 27.8968C15.6458 28.1159 15.9415 28.2391 16.2499 28.2391C16.5583 28.2391 16.854 28.1159 17.0721 27.8968C17.2902 27.6776 17.4127 27.3803 17.4127 27.0703C17.4127 26.7603 17.2902 26.463 17.0721 26.2438C16.854 26.0246 16.5583 25.9015 16.2499 25.9015C15.9415 25.9015 15.6458 26.0246 15.4277 26.2438C15.2097 26.463 15.0872 26.7603 15.0872 27.0703Z" fill="#0571B3"/>
<path d="M57.5 37.2489V24.6839C57.5 23.9899 56.9404 23.4274 56.25 23.4274H47.5C46.8096 23.4274 46.25 23.9899 46.25 24.6839V37.2489C46.25 37.9429 46.8096 38.5054 47.5 38.5054H56.25C56.9404 38.5054 57.5 37.9429 57.5 37.2489Z" fill="#75A5D3"/>
<path d="M14 13.3754H36.306C38.1814 15.6547 39.7203 18.1938 40.875 20.9144H11.5V15.8884C11.5 14.5004 12.6193 13.3754 14 13.3754Z" fill="#FD73C4"/>
<path d="M24.0387 17.1449C24.0387 17.4549 23.9162 17.7522 23.6982 17.9714C23.4801 18.1907 23.1843 18.3138 22.8759 18.3138C22.5675 18.3138 22.2718 18.1907 22.0537 17.9714C21.8356 17.7522 21.7131 17.4549 21.7131 17.1449C21.7131 16.8349 21.8356 16.5376 22.0537 16.3184C22.2718 16.0992 22.5675 15.9761 22.8759 15.9761C23.1843 15.9761 23.4801 16.0992 23.6982 16.3184C23.9162 16.5376 24.0387 16.8349 24.0387 17.1449ZM19 15.9761C18.8463 15.9745 18.6938 16.0036 18.5513 16.0616C18.4089 16.1196 18.2793 16.2054 18.17 16.3141C18.0608 16.4228 17.974 16.5522 17.9149 16.6948C17.8557 16.8374 17.8252 16.9904 17.8252 17.1449C17.8252 17.2994 17.8557 17.4524 17.9149 17.595C17.974 17.7375 18.0608 17.8669 18.17 17.9756C18.2793 18.0843 18.4089 18.1701 18.5513 18.2281C18.6938 18.2862 18.8463 18.3152 19 18.3136C19.3063 18.3104 19.5989 18.1859 19.8144 17.967C20.0298 17.7482 20.1507 17.4528 20.1507 17.1449C20.1507 16.837 20.0298 16.5415 19.8144 16.3227C19.5989 16.1039 19.3063 15.9793 19 15.9761ZM15.124 15.9761C14.8156 15.9761 14.5198 16.0993 14.3018 16.3185C14.0837 16.5377 13.9612 16.835 13.9612 17.145C13.9612 17.455 14.0837 17.7523 14.3018 17.9715C14.5198 18.1907 14.8156 18.3139 15.124 18.3139C15.4324 18.3139 15.7282 18.1907 15.9462 17.9715C16.1643 17.7523 16.2868 17.455 16.2868 17.145C16.2868 16.835 16.1643 16.5377 15.9462 16.3185C15.7282 16.0993 15.4324 15.9761 15.124 15.9761Z" fill="#F02399"/>
<path d="M64 7.21852V26.3174C64 29.0931 61.7614 31.3434 59 31.3434H45.8906V27.7576C45.8906 24.9818 43.652 22.7316 40.8906 22.7316H35V7.21852C35 4.44278 37.2386 2.1925 40 2.1925H59C61.7614 2.1925 64 4.44278 64 7.21852Z" fill="#C92E43"/>
<path d="M64 7.21852V21.9103C61.969 22.9989 59.6499 23.6159 57.1875 23.6159C49.1794 23.6159 42.6875 17.0902 42.6875 9.04045C42.6875 6.56526 43.3014 4.23407 44.3843 2.1925H59C61.7614 2.1925 64 4.44278 64 7.21852Z" fill="#FD4343"/>
<path d="M56.2225 20.1103L47.7769 19.6309L47.3 11.1414C47.3099 10.8536 47.4178 10.578 47.6057 10.3606C47.7935 10.1433 48.05 9.99736 48.3321 9.94731L55.2299 8.72373C57.2348 8.36801 58.9815 10.1239 58.6277 12.1392L57.4104 19.0729C57.3606 19.3565 57.2155 19.6142 56.9992 19.8031C56.783 19.9919 56.5088 20.1004 56.2225 20.1103Z" fill="#F5DC90"/>
<path d="M57.4104 19.0727C57.3606 19.3563 57.2154 19.6141 56.9992 19.8029C56.783 19.9917 56.5088 20.1002 56.2225 20.1101L50.8535 19.84L49.2864 13.1379C49.2963 12.8501 49.4042 12.5745 49.592 12.3572C49.7799 12.1398 50.0363 11.9939 50.3184 11.9438L58.1203 11.9974C58.1856 11.9978 58.25 12.0126 58.3091 12.0406C58.3681 12.0687 58.4204 12.1094 58.4622 12.1598C58.504 12.2103 58.5344 12.2693 58.5512 12.3327C58.5679 12.3962 58.5707 12.4626 58.5594 12.5272L57.4104 19.0727Z" fill="#F9EECF"/>
<path d="M54.8479 8.79147L57.5972 8.30382C58.4517 8.15228 59.1962 8.90053 59.0454 9.7596L58.5603 12.5232L54.8479 8.79147Z" fill="#013F69"/>
<path d="M56.7925 17.854C57.5248 18.59 57.5248 19.7833 56.7925 20.5194L46.0245 31.3434H40C37.2386 31.3434 35 29.0932 35 26.3174V22.5233L46.893 10.5684C47.6253 9.83234 48.8124 9.83234 49.5446 10.5684L56.7925 17.854Z" fill="#ECB700"/>
<path d="M56.7926 17.8539C57.5249 18.59 57.5249 19.7833 56.7926 20.5194L46.0246 31.3434H40.0001C37.7048 31.3434 35.771 29.7887 35.1833 27.67L50.8706 11.9011L56.7926 17.8539Z" fill="#FDE803"/>
<path d="M53.522 19.8974L44.1438 29.3244C43.6557 29.8151 42.8642 29.8151 42.376 29.3244C41.8879 28.8337 41.8879 28.0381 42.376 27.5475L51.7543 18.1204C52.2424 17.6298 53.0339 17.6298 53.522 18.1204C54.0102 18.6111 54.0102 19.4067 53.522 19.8974ZM49.1027 13.6781C48.6145 13.1874 47.823 13.1874 47.3349 13.6781L37.9567 23.1051C37.4685 23.5958 37.4685 24.3914 37.9567 24.882C38.4448 25.3727 39.2363 25.3727 39.7244 24.882L49.1027 15.455C49.5908 14.9643 49.5908 14.1687 49.1027 13.6781Z" fill="#CD9E00"/>
</svg>

<svg width="64" height="66" fill="none" xmlns="http://www.w3.org/2000/svg"><path d="M59.983 45.503C55.21 56.262 44.476 63.761 32 63.761c-16.914 0-30.625-13.782-30.625-30.784S15.086 2.193 32 2.193c12.476 0 23.21 7.499 27.983 18.258a30.811 30.811 0 0 0-2.641 12.526c0 4.46.944 8.7 2.641 12.526z" fill="#A7DDE2"/><path d="M2.5 48.557h55.919a30.89 30.89 0 0 1-6.197 7.54H5c-2.761 0-5-2.25-5-5.026a2.506 2.506 0 0 1 2.5-2.514zm48.291-39.89a31.9 31.9 0 0 0-.413-.318H11.5c-2.761 0-5 2.25-5 5.026V41.02c0 2.775 2.239 5.026 5 5.026H59c.26 0 .515-.02.764-.059a30.669 30.669 0 0 0 1.806-4.967c.003-.014.156-9.629.156-9.629 0-8.856-3.982-17.285-10.935-22.723z" fill="#056099"/><path d="M11 56.096H5c-2.761 0-5-2.25-5-5.025a2.506 2.506 0 0 1 2.5-2.514h6c-1.38 0-2.5 1.126-2.5 2.514 0 2.775 2.239 5.026 5 5.026zM16.5 8.35h-5c-2.761 0-5 2.25-5 5.026V41.02c0 2.775 2.239 5.026 5 5.026h5c-2.761 0-5-2.25-5-5.026V13.375c0-2.775 2.239-5.026 5-5.026zm9.75 40.209c0 2.081 1.679 3.769 3.75 3.769h11.25c2.071 0 3.75-1.688 3.75-3.77H26.25z" fill="#013F69"/><path d="M39.838 13.375a30.755 30.755 0 0 1 7.01 19.602c0 2.782-.368 5.478-1.056 8.041H14c-1.38 0-2.5-1.125-2.5-2.513V15.888a2.506 2.506 0 0 1 2.5-2.513h25.838z" fill="#75A5D3"/><path d="M22.688 41.018V24.684c0-.694.56-1.257 1.25-1.257h37.185a30.904 30.904 0 0 1 1.502 9.55c0 2.782-.367 5.478-1.056 8.041H22.688z" fill="#FFF5F5"/><path d="M17.5 38.505H15c-.69 0-1.25-.562-1.25-1.256V24.684c0-.694.56-1.257 1.25-1.257h2.5c.69 0 1.25.563 1.25 1.257v12.565c0 .694-.56 1.256-1.25 1.256z" fill="#5592CA"/><path d="M16.25 33.694a1.157 1.157 0 0 1 1.074.721 1.175 1.175 0 0 1-.63 1.527 1.157 1.157 0 0 1-1.518-.632 1.173 1.173 0 0 1 .629-1.527c.141-.06.292-.09.445-.09zm-1.163-2.728c0 .31.123.608.34.827a1.16 1.16 0 0 0 1.986-.826c0-.31-.123-.608-.34-.827a1.16 1.16 0 0 0-1.897.38 1.173 1.173 0 0 0-.089.447zm0-3.896c0 .31.123.608.34.827a1.16 1.16 0 0 0 1.986-.827c0-.31-.123-.607-.34-.826a1.16 1.16 0 0 0-1.645 0c-.218.219-.34.516-.34.826z" fill="#0571B3"/><path d="M57.5 37.249V24.684c0-.694-.56-1.257-1.25-1.257H47.5c-.69 0-1.25.563-1.25 1.257v12.565c0 .694.56 1.256 1.25 1.256h8.75c.69 0 1.25-.562 1.25-1.256z" fill="#75A5D3"/><path d="M14 13.375h22.306a30.812 30.812 0 0 1 4.569 7.54H11.5v-5.027a2.506 2.506 0 0 1 2.5-2.513z" fill="#FD73C4"/><path d="M24.039 17.145c0 .31-.123.607-.34.826a1.16 1.16 0 0 1-1.645 0 1.172 1.172 0 0 1 .822-1.995c.308 0 .604.123.822.342.218.22.34.517.34.827zM19 15.976a1.158 1.158 0 0 0-1.085.719 1.174 1.174 0 0 0 .636 1.533 1.156 1.156 0 0 0 1.263-.261 1.172 1.172 0 0 0-.814-1.99zm-3.876 0a1.16 1.16 0 0 0-.822.342 1.172 1.172 0 0 0 .822 1.996c.308 0 .604-.123.822-.343a1.172 1.172 0 0 0-.822-1.995z" fill="#F02399"/><path d="M64 7.219v19.098c0 2.776-2.239 5.026-5 5.026H45.89v-3.585c0-2.776-2.238-5.026-5-5.026H35V7.219c0-2.776 2.239-5.027 5-5.027h19c2.761 0 5 2.25 5 5.027z" fill="#C92E43"/><path d="M64 7.219V21.91a14.377 14.377 0 0 1-6.813 1.706c-8.008 0-14.5-6.526-14.5-14.576 0-2.475.614-4.806 1.697-6.847H59c2.761 0 5 2.25 5 5.026z" fill="#FD4343"/><path d="m56.222 20.11-8.445-.48-.477-8.489a1.26 1.26 0 0 1 .306-.78c.188-.218.444-.364.726-.414l6.898-1.223c2.005-.356 3.752 1.4 3.398 3.415l-1.218 6.934a1.246 1.246 0 0 1-1.188 1.037z" fill="#F5DC90"/><path d="M57.41 19.073a1.246 1.246 0 0 1-1.188 1.037l-5.369-.27-1.567-6.702a1.26 1.26 0 0 1 .306-.78c.188-.218.444-.364.726-.414l7.802.053a.447.447 0 0 1 .431.336c.017.063.02.13.008.194l-1.149 6.546z" fill="#F9EECF"/><path d="m54.848 8.791 2.75-.487a1.253 1.253 0 0 1 1.447 1.456l-.485 2.763-3.712-3.732z" fill="#013F69"/><path d="M56.792 17.854c.733.736.733 1.93 0 2.665L46.025 31.343H40c-2.761 0-5-2.25-5-5.026v-3.794l11.893-11.955a1.868 1.868 0 0 1 2.652 0l7.247 7.286z" fill="#ECB700"/><path d="M56.793 17.854c.732.736.732 1.93 0 2.665L46.025 31.343H40c-2.295 0-4.229-1.554-4.817-3.673l15.688-15.769 5.922 5.953z" fill="#FDE803"/><path d="m53.522 19.897-9.378 9.427c-.488.491-1.28.491-1.768 0a1.261 1.261 0 0 1 0-1.777l9.378-9.427c.488-.49 1.28-.49 1.768 0 .488.491.488 1.287 0 1.777zm-4.42-6.219a1.245 1.245 0 0 0-1.767 0l-9.378 9.427a1.261 1.261 0 0 0 0 1.777c.488.49 1.28.49 1.767 0l9.379-9.427a1.261 1.261 0 0 0 0-1.777z" fill="#CD9E00"/></svg>
